src/assets/svg/icons/fa/nuevos/classic/thin/tarp-droplet classic thin.svg

<svg xmlns="http://www.w3.org/2000/svg" viewBox="0 0 576 512"><path d="M360 113.5C360 150.8 327.8 181 288 181C248.2 181 216 150.8 216 113.5C216 85.81 255.7 32.2 276.2 6.468C282.3-1.229 293.7-1.229 299.8 6.468C320.3 32.2 360 85.81 360 113.5H360zM338.8 95.08C335.2 86.74 330 77.37 323.1 67.7C312.2 48.82 298 29.98 288 17.31C277.1 29.98 263.8 48.82 252 67.7C245.1 77.37 240.8 86.74 237.2 95.08C233.4 103.7 232 109.9 232 113.5C232 140.1 256.1 165 288 165C319.9 165 344 140.1 344 113.5C344 109.9 342.6 103.7 338.8 95.08V95.08zM64 128H193.3C194.3 133.5 195.6 138.9 197.5 144H64C37.49 144 16 165.5 16 192V448C16 474.5 37.49 496 64 496H396.1C397.4 496 398.7 495.9 400 495.8V376C400 353.9 417.9 336 440 336H559.8C559.9 334.7 560 333.4 560 332.1V192C560 165.5 538.5 144 512 144H378.5C380.4 138.9 381.7 133.5 382.7 128H512C547.3 128 576 156.7 576 192V332.1C576 344.9 570.9 357.1 561.9 366.1L430.1 497.9C421.1 506.9 408.8 512 396.1 512H64C28.65 512 0 483.3 0 448V192C0 156.7 28.65 128 64 128V128zM550.6 354.7C551.5 353.9 552.3 352.1 553.1 352H440C426.7 352 416 362.7 416 376V489.1C416.1 488.3 417.9 487.5 418.7 486.6L550.6 354.7zM120 216C120 233.7 105.7 248 88 248C70.33 248 56 233.7 56 216C56 198.3 70.33 184 88 184C105.7 184 120 198.3 120 216zM88 232C96.84 232 104 224.8 104 216C104 207.2 96.84 200 88 200C79.16 200 72 207.2 72 216C72 224.8 79.16 232 88 232z"/></svg>

<svg xmlns="http://www.w3.org/2000/svg" viewBox="0 0 576 512"><!--! Font Awesome Pro 6.4.0 by @fontawesome - https://fontawesome.com License - https://fontawesome.com/license (Commercial License) Copyright 2023 Fonticons, Inc. --><path d="M344 113.5c0-3.6-1.4-9.8-5.2-18.4c-3.6-8.3-8.8-17.7-14.8-27.4C312.2 48.8 298 30 288 17.3C278 30 263.8 48.8 252 67.7c-6 9.7-11.2 19-14.8 27.4c-3.8 8.7-5.2 14.8-5.2 18.4c0 27.5 24.1 51.5 56 51.5s56-24 56-51.5zm16 0c0 37.3-32.2 67.5-72 67.5s-72-30.2-72-67.5c0-27.7 39.7-81.3 60.2-107c6.1-7.7 17.5-7.7 23.7 0c20.4 25.7 60.2 79.3 60.2 107zM64 128H193.3c.9 5.5 2.3 10.9 4.1 16H64c-26.5 0-48 21.5-48 48l0 256c0 26.5 21.5 48 48 48l332.1 0c1.3 0 2.6-.1 3.9-.2L400 376c0-22.1 17.9-40 40-40H559.8c.2-1.3 .2-2.6 .2-3.9V192c0-26.5-21.5-48-48-48H378.5c1.8-5.1 3.2-10.5 4.1-16H512c35.3 0 64 28.7 64 64V332.1c0 12.7-5.1 24.9-14.1 33.9L430.1 497.9c-9 9-21.2 14.1-33.9 14.1L64 512c-35.3 0-64-28.7-64-64V192c0-35.3 28.7-64 64-64zM418.7 486.6L550.6 354.7c.9-.9 1.7-1.8 2.4-2.7H440c-13.3 0-24 10.7-24 24l0 113.1c1-.8 1.9-1.6 2.7-2.4zM72 216a16 16 0 1 0 32 0 16 16 0 1 0 -32 0zm16 32a32 32 0 1 1 0-64 32 32 0 1 1 0 64z"/></svg>
